packages/icons/src/emoji/svg/graduation-cap.svg

<svg width="120" height="120" viewBox="0 0 120 120" fill="none" xmlns="http://www.w3.org/2000/svg">
<path d="M16.3223 43.8093H102.16V81.8062H16.3223V43.8093Z" fill="#2F2F2F"/>
<path d="M16.3216 61.5C25.4716 65.4938 34.7529 69.6 43.7998 73.8938C49.4248 76.5656 54.6654 77.8687 59.8216 77.8687C63.581 77.8687 67.331 77.1563 70.9779 75.7406C73.8466 74.6344 76.6123 73.2938 79.2935 72C81.0466 71.1563 82.6966 70.35 84.3935 69.6094C86.2779 68.775 88.1623 67.9313 90.0466 67.0969C93.3092 65.625 96.5623 64.1438 99.8248 62.6531C100.603 62.2969 101.381 61.95 102.169 61.5937V76.2469C102.169 79.5188 102.244 82.8 102.169 86.0719C101.915 96.9281 89.1185 98.7562 78.2435 99.8625C61.8373 101.531 41.7466 102.459 26.0716 97.6313C21.8529 96.3281 19.2935 94.0219 17.7748 91.1813C14.2591 84.6094 16.331 75.1688 16.331 68.7375C16.3216 66.3281 16.3216 63.9187 16.3216 61.5Z" fill="#006CA2"/>
<path d="M0.553363 44.1374C0.768988 43.6218 1.05961 43.1249 1.32211 42.7312C2.38149 41.1749 3.96586 39.9468 5.56899 38.9905C6.29086 38.5593 7.03149 38.0905 7.79086 37.753C12.1784 35.7937 16.6315 33.5905 21.0096 31.4718C31.1909 26.578 41.3065 21.5155 51.9846 17.8124C54.1502 17.0624 56.269 16.7437 58.3596 16.7437C63.8534 16.7437 69.1409 18.9562 74.3909 21.3374C83.1284 25.303 91.8752 29.2593 100.603 33.2155C105.15 35.278 109.941 37.0593 114.356 39.4405C116.747 40.7343 120.366 42.8999 119.766 46.453C119.363 48.8999 116.738 49.9312 114.731 50.8312C111.703 52.1812 108.666 53.5124 105.647 54.8718C104.485 55.3968 103.322 55.9218 102.16 56.4562C97.4815 58.5843 92.8127 60.7218 88.1252 62.8218C86.2502 63.6655 84.3752 64.4999 82.5002 65.3249C78.094 67.2655 73.7721 69.6468 69.2909 71.3905C66.0846 72.628 62.9346 73.1905 59.8221 73.1905C55.1065 73.1905 50.4659 71.8874 45.8065 69.6655C36.0565 65.0343 26.2127 60.6937 16.3221 56.3999C13.7815 55.2843 11.2315 54.1874 8.69086 53.0905C5.26899 51.6093 -1.49039 49.1343 0.553363 44.1374Z" fill="#006CA2"/>
<path d="M117.9 98.2594C117.9 98.2594 117.825 100.491 118.237 103.388C118.237 103.388 110.981 104.784 105.628 100.238C105.628 100.238 105.694 98.1938 106.003 97.3313L117.9 98.2594Z" fill="#ED6C30"/>
<path d="M117.89 96.8063C117.871 96.1782 117.815 95.5313 117.731 94.9032C117.506 93.2813 116.934 91.8938 115.781 90.7219C115.443 90.3844 115.078 90.1782 114.712 90.0282V51.5813H109.865V56.4094C109.846 56.9157 109.856 57.4032 109.865 57.8625V62.4188H109.893C109.893 62.9063 109.893 63.3938 109.903 63.8813C109.94 68.0157 109.865 72.1407 109.818 76.275C109.8 77.1188 109.79 77.9719 109.79 78.8251V89.9344C109.05 90.2063 108.412 90.6938 107.896 91.5188C107.287 92.5126 106.921 93.6469 106.603 94.7626C106.443 95.3157 105.993 97.3219 105.993 97.3219C105.993 97.3219 105.909 98.0813 106.678 98.4375C107.775 98.9438 110.334 99.7688 114.843 99.3188C115.434 99.2626 116.025 99.1407 116.587 98.9625C117.018 98.8313 117.693 98.6907 117.9 98.25C118.04 97.9594 117.9 97.0876 117.89 96.8063ZM103.462 108.534C104.128 107.156 104.587 105.684 104.934 104.203C105.112 103.463 105.628 100.238 105.628 100.238C105.628 100.238 107.212 101.634 111.843 101.916C115.65 102.15 118.012 101.409 118.012 101.409C118.012 101.409 118.706 104.353 118.743 108.113C118.771 110.409 118.443 112.622 117.571 114.741C117.3 115.406 116.99 116.109 116.446 116.597C116.034 116.981 115.106 117.169 114.6 116.831C114.253 116.588 114.412 116.334 114.346 115.997C114.206 115.172 113.578 116.016 113.343 116.325C112.94 116.869 112.846 117.309 112.143 117.525C111.121 117.825 109.368 118.125 108.74 116.981C108.515 116.578 108.853 116.269 108.271 116.259C107.99 116.259 107.625 116.756 107.437 116.934C107.053 117.3 106.631 117.403 106.106 117.347C105.253 117.281 104.015 116.841 103.818 115.884C103.734 115.556 104.268 114.844 103.575 114.881C102.918 114.909 102.571 115.716 101.775 115.65C101.09 115.603 100.575 115.106 100.359 114.469C99.984 113.325 100.921 112.041 101.634 111.225C102.375 110.372 102.975 109.547 103.462 108.534Z" fill="#F79329"/>
<path d="M112.622 53.6156C112.472 53.6156 112.322 53.5969 112.172 53.5688L59.0343 42.0094C57.8905 41.7563 57.1593 40.6313 57.4124 39.4781C57.6655 38.3344 58.7905 37.6031 59.9437 37.8563L113.081 49.4156C114.225 49.6688 114.956 50.7938 114.703 51.9469C114.596 52.4195 114.332 52.8419 113.954 53.145C113.576 53.4481 113.106 53.614 112.622 53.6156Z" fill="#F79329"/>
</svg>

<svg xmlns="http://www.w3.org/2000/svg" fill="none" aria-hidden="true" data-slot="icon" viewBox="0 0 120 120"><path fill="#2F2F2F" d="M16.322 43.81h85.838v37.996H16.322z"/><path fill="#006CA2" d="M16.322 61.5c9.15 3.994 18.43 8.1 27.478 12.394 5.625 2.672 10.865 3.975 16.022 3.975 3.759 0 7.509-.713 11.156-2.128 2.869-1.107 5.634-2.447 8.316-3.741 1.753-.844 3.403-1.65 5.1-2.39 1.884-.835 3.768-1.679 5.653-2.513a2241 2241 0 0 0 9.778-4.444c.778-.356 1.556-.703 2.344-1.06v14.654c0 3.272.075 6.553 0 9.825-.254 10.856-13.05 12.684-23.925 13.79-16.407 1.669-36.497 2.597-52.172-2.23-4.22-1.304-6.778-3.61-8.297-6.45-3.516-6.573-1.444-16.013-1.444-22.445-.01-2.409-.01-4.818-.01-7.237"/><path fill="#006CA2" d="M.553 44.137a8.6 8.6 0 0 1 .77-1.406c1.058-1.556 2.643-2.784 4.246-3.74.722-.432 1.462-.9 2.222-1.238 4.387-1.96 8.84-4.163 13.219-6.281 10.18-4.894 20.297-9.957 30.975-13.66a19.3 19.3 0 0 1 6.375-1.068c5.493 0 10.78 2.212 16.03 4.593 8.738 3.966 17.485 7.922 26.213 11.878 4.547 2.063 9.338 3.844 13.753 6.225 2.391 1.294 6.01 3.46 5.41 7.013-.403 2.447-3.028 3.478-5.035 4.378-3.028 1.35-6.065 2.681-9.084 4.04-1.162.526-2.325 1.05-3.487 1.585-4.678 2.128-9.347 4.266-14.035 6.366q-2.812 1.265-5.625 2.503c-4.406 1.94-8.728 4.322-13.21 6.066-3.205 1.237-6.355 1.8-9.468 1.8-4.716 0-9.356-1.304-14.016-3.526-9.75-4.63-19.593-8.971-29.484-13.265-2.54-1.116-5.09-2.213-7.631-3.31C5.269 51.61-1.49 49.134.553 44.138"/><path fill="#ED6C30" d="M117.9 98.26s-.075 2.231.337 5.128c0 0-7.256 1.396-12.609-3.15 0 0 .066-2.044.375-2.907z"/><path fill="#F79329" d="M117.89 96.806a19 19 0 0 0-.159-1.903c-.225-1.622-.797-3.01-1.95-4.181a3.2 3.2 0 0 0-1.069-.694V51.581h-4.847v4.828c-.019.507-.009.994 0 1.453v4.557h.028c0 .487 0 .975.01 1.462.037 4.135-.038 8.26-.085 12.394-.018.844-.028 1.697-.028 2.55v11.11c-.74.271-1.378.759-1.894 1.584-.609.994-.975 2.128-1.293 3.244-.16.553-.61 2.559-.61 2.559s-.084.76.685 1.115c1.097.507 3.656 1.332 8.165.882a8.5 8.5 0 0 0 1.744-.356c.431-.132 1.106-.272 1.313-.713.14-.29 0-1.162-.01-1.444m-14.428 11.728c.666-1.378 1.125-2.85 1.472-4.331.178-.74.694-3.965.694-3.965s1.584 1.396 6.215 1.678c3.807.234 6.169-.507 6.169-.507s.694 2.944.731 6.704c.028 2.296-.3 4.509-1.172 6.628-.271.665-.581 1.368-1.125 1.856-.412.384-1.34.572-1.846.234-.347-.243-.188-.497-.254-.834-.14-.825-.768.019-1.003.328-.403.544-.497.984-1.2 1.2-1.022.3-2.775.6-3.403-.544-.225-.403.113-.712-.469-.722-.281 0-.646.497-.834.675-.384.366-.806.469-1.331.413-.853-.066-2.091-.506-2.288-1.463-.084-.328.45-1.04-.243-1.003-.657.028-1.004.835-1.8.769-.685-.047-1.2-.544-1.416-1.181-.375-1.144.562-2.428 1.275-3.244.741-.853 1.341-1.678 1.828-2.691"/><path fill="#F79329" d="M112.622 53.616c-.15 0-.3-.02-.45-.047l-53.138-11.56a2.125 2.125 0 0 1-1.622-2.53 2.124 2.124 0 0 1 2.532-1.623l53.137 11.56a2.125 2.125 0 0 1 1.622 2.53 2.14 2.14 0 0 1-2.081 1.67"/></svg>
